icons/snapchat-fill.svg

<svg width="24" height="24" fill="none" xmlns="http://www.w3.org/2000/svg"><g clip-path="url(#a)"><path d="M11.871 21.764c-1.19 0-1.984-.561-2.693-1.056-.503-.357-.976-.696-1.533-.79a4.568 4.568 0 0 0-.803-.066c-.472 0-.847.071-1.114.125-.17.03-.312.058-.424.058-.116 0-.263-.032-.32-.228-.05-.16-.081-.312-.112-.459-.08-.37-.147-.597-.286-.62-1.489-.227-2.38-.57-2.554-.976-.014-.044-.031-.09-.031-.125-.01-.125.08-.227.205-.25 1.181-.196 2.242-.824 3.138-1.858.696-.803 1.035-1.579 1.066-1.663 0-.01.009-.01.009-.01.17-.351.205-.65.102-.895-.191-.46-.825-.656-1.257-.79-.111-.03-.205-.066-.285-.093-.37-.147-.986-.46-.905-.892.058-.312.472-.535.811-.535.094 0 .174.014.24.05.38.173.723.262 1.017.262.366 0 .54-.138.584-.182a29.03 29.03 0 0 0-.035-.593c-.09-1.365-.192-3.059.24-4.03 1.298-2.907 4.053-3.14 4.869-3.14L12.156 3h.05c.815 0 3.57.227 4.868 3.139.437.971.33 2.67.24 4.03l-.008.067c-.01.182-.023.356-.032.535.045.035.205.169.535.173.286-.008.598-.102.954-.263a.803.803 0 0 1 .312-.066c.125 0 .25.03.357.066h.009c.299.112.495.321.495.54.009.205-.152.517-.914.825-.08.03-.174.067-.285.093-.424.13-1.057.335-1.258.79-.111.24-.066.548.103.895 0 .01.009.01.009.01.049.124 1.337 3.049 4.204 3.526a.246.246 0 0 1 .205.25.267.267 0 0 1-.031.129c-.174.41-1.057.744-2.555.976-.138.022-.205.25-.285.62-.032.154-.07.307-.112.459-.044.147-.138.227-.298.227h-.023a2.24 2.24 0 0 1-.423-.049 5.282 5.282 0 0 0-1.115-.116 4.97 4.97 0 0 0-.802.067c-.553.09-1.03.433-1.534.79-.717.49-1.515 1.051-2.697 1.051h-.254Z" /></g><defs><clipPath id="a"><path fill="#fff" d="M0 0h24v24H0z"/></clipPath></defs></svg>

<svg xmlns="http://www.w3.org/2000/svg" width="24" height="24" fill="none"><g clip-path="url(#a)"><g><path fill="#121212" d="M11.871 21.764C10.681 21.764 9.887 21.203 9.178 20.708C8.675 20.351 8.202 20.012 7.645 19.918C7.3798 19.8724 7.11109 19.8503 6.842 19.852C6.37 19.852 5.995 19.923 5.728 19.977C5.558 20.007 5.416 20.035 5.304 20.035C5.188 20.035 5.041 20.003 4.984 19.807C4.934 19.647 4.903 19.495 4.872 19.348C4.792 18.978 4.725 18.751 4.586 18.728C3.097 18.501 2.206 18.158 2.032 17.752C2.018 17.708 2.001 17.662 2.001 17.627C1.991 17.502 2.081 17.4 2.206 17.377C3.387 17.181 4.448 16.553 5.344 15.519C6.04 14.716 6.379 13.94 6.41 13.856C6.41 13.846 6.419 13.846 6.419 13.846C6.589 13.495 6.624 13.196 6.521 12.951C6.33 12.491 5.696 12.295 5.264 12.161C5.153 12.131 5.059 12.095 4.979 12.068C4.609 11.921 3.993 11.608 4.074 11.176C4.132 10.864 4.546 10.641 4.885 10.641C4.979 10.641 5.059 10.655 5.125 10.691C5.505 10.864 5.848 10.953 6.142 10.953C6.508 10.953 6.682 10.815 6.726 10.771C6.71669 10.5732 6.70502 10.3755 6.691 10.178C6.601 8.813 6.499 7.119 6.931 6.148C8.229 3.241 10.984 3.008 11.8 3.008L12.156 3H12.206C13.021 3 15.776 3.227 17.074 6.139C17.511 7.11 17.404 8.809 17.314 10.169L17.306 10.236C17.296 10.418 17.283 10.592 17.274 10.771C17.319 10.806 17.479 10.94 17.809 10.944C18.095 10.936 18.407 10.842 18.763 10.681C18.8616 10.6384 18.9676 10.6159 19.075 10.615C19.2 10.615 19.325 10.645 19.432 10.681H19.441C19.74 10.793 19.936 11.002 19.936 11.221C19.945 11.426 19.784 11.738 19.022 12.046C18.942 12.076 18.848 12.113 18.737 12.139C18.313 12.269 17.68 12.474 17.479 12.929C17.368 13.169 17.413 13.477 17.582 13.824C17.582 13.834 17.591 13.834 17.591 13.834C17.64 13.958 18.928 16.883 21.795 17.36C21.8536 17.3699 21.9067 17.4006 21.9443 17.4466C21.982 17.4926 22.0018 17.5506 22 17.61C22 17.654 21.991 17.699 21.969 17.739C21.795 18.149 20.912 18.483 19.414 18.715C19.276 18.737 19.209 18.965 19.129 19.335C19.097 19.4892 19.0596 19.6423 19.017 19.794C18.973 19.941 18.879 20.021 18.719 20.021H18.696C18.594 20.021 18.456 20.008 18.273 19.972C17.9065 19.8939 17.5327 19.855 17.158 19.856C16.895 19.856 16.623 19.879 16.356 19.923C15.803 20.013 15.326 20.356 14.822 20.713C14.105 21.203 13.307 21.764 12.125 21.764H11.871Z"/></g></g><defs><clipPath id="a"><rect width="24" height="24" fill="white"/></clipPath></defs></svg>
